X:48
T:My Love Is In America   Reel  Allan's #48
C:Trad/Anon
B:Allan's Irish Fiddler (pub. Mozart Allen,  Glascow) date unknown
Z:FROM ALLAN'S TO NOTEWORTHY, FROM NOTEWORTHY TO ABC, MIDI AND .TXT BY VINCE
BRENNAN Dec. 2002 (HTTP://WWW.SOSYOURMOM.COM)
I:abc2nwc
M:2/2
L:1/8
K:D
E| {G}F EFG ABcB|Addc AddE| {G}F EFG ABcB|GBAG FDDE|
FEFG ABcB|Addc Adde|fage fdec ABAG F D D||
g|fdeg fdec|Addc Adde|fdeg fdec|ABAG (FD) D2|
fdeg fdec|Addc Adde|fage fdec|ABAG FD D |]
